svgs/light/car-battery.svg

<svg xmlns="http://www.w3.org/2000/svg" viewBox="0 0 512 512"><!--! Font Awesome Pro 6.5.1 by @fontawesome - https://fontawesome.com License - https://fontawesome.com/license (Commercial License) Copyright 2023 Fonticons, Inc. --><path d="M64 80c0-8.8 7.2-16 16-16h96c8.8 0 16 7.2 16 16s-7.2 16-16 16H80c-8.8 0-16-7.2-16-16zm256 0c0-8.8 7.2-16 16-16h96c8.8 0 16 7.2 16 16s-7.2 16-16 16H336c-8.8 0-16-7.2-16-16zM64 160c-17.7 0-32 14.3-32 32V384c0 17.7 14.3 32 32 32H448c17.7 0 32-14.3 32-32V192c0-17.7-14.3-32-32-32H64zM0 192c0-35.3 28.7-64 64-64H448c35.3 0 64 28.7 64 64V384c0 35.3-28.7 64-64 64H64c-35.3 0-64-28.7-64-64V192zm368 16c8.8 0 16 7.2 16 16v32h32c8.8 0 16 7.2 16 16s-7.2 16-16 16H384v32c0 8.8-7.2 16-16 16s-16-7.2-16-16V288H320c-8.8 0-16-7.2-16-16s7.2-16 16-16h32V224c0-8.8 7.2-16 16-16zM96 256h96c8.8 0 16 7.2 16 16s-7.2 16-16 16H96c-8.8 0-16-7.2-16-16s7.2-16 16-16z"/></svg>

<svg xmlns="http://www.w3.org/2000/svg" viewBox="0 0 512 512"><!--! Font Awesome Pro 6.1.1 by @fontawesome - https://fontawesome.com License - https://fontawesome.com/license (Commercial License) Copyright 2022 Fonticons, Inc. --><path d="M64 80C64 71.16 71.16 64 80 64H176C184.8 64 192 71.16 192 80C192 88.84 184.8 96 176 96H80C71.16 96 64 88.84 64 80zM320 80C320 71.16 327.2 64 336 64H432C440.8 64 448 71.16 448 80C448 88.84 440.8 96 432 96H336C327.2 96 320 88.84 320 80zM368 208C376.8 208 384 215.2 384 224V256H416C424.8 256 432 263.2 432 272C432 280.8 424.8 288 416 288H384V320C384 328.8 376.8 336 368 336C359.2 336 352 328.8 352 320V288H320C311.2 288 304 280.8 304 272C304 263.2 311.2 256 320 256H352V224C352 215.2 359.2 208 368 208zM192 256C200.8 256 208 263.2 208 272C208 280.8 200.8 288 192 288H96C87.16 288 80 280.8 80 272C80 263.2 87.16 256 96 256H192zM0 192C0 156.7 28.65 128 64 128H448C483.3 128 512 156.7 512 192V384C512 419.3 483.3 448 448 448H64C28.65 448 0 419.3 0 384V192zM32 192V384C32 401.7 46.33 416 64 416H448C465.7 416 480 401.7 480 384V192C480 174.3 465.7 160 448 160H64C46.33 160 32 174.3 32 192z"/></svg>
